images/zhuyin/10.svg

<svg width="50" height="50" viewBox="0 0 50 50" fill="none" xmlns="http://www.w3.org/2000/svg">
<path d="M15.625 16.7188C15.6875 16.7188 15.7734 16.7578 15.8828 16.8359C16.1172 16.8828 16.3438 16.9062 16.5625 16.9062C17.1719 16.9062 18.0625 16.8438 19.2344 16.7188C22.1094 16.3125 25.5391 15.9922 29.5234 15.7578C30.5859 15.7109 31.375 15.5625 31.8906 15.3125C32.2031 15.1875 32.4141 15.125 32.5234 15.125C32.8359 15.125 33.2656 15.3281 33.8125 15.7344C34.3125 16.1406 34.5625 16.4688 34.5625 16.7188C34.5625 17.0312 34.375 17.1875 34 17.1875C33.8281 17.1875 33.4766 17.1484 32.9453 17.0703C32.1016 17.0234 31.2969 17 30.5312 17C27.7188 17 25.3047 17.1172 23.2891 17.3516C23.9297 17.9453 24.25 18.4219 24.25 18.7812C24.25 18.9844 24.1562 19.1953 23.9688 19.4141C23.5781 19.7422 23.1484 20.4219 22.6797 21.4531C22.5391 21.7031 22.4688 21.875 22.4688 21.9688C22.4688 22.1562 22.5312 22.25 22.6562 22.25C22.7812 22.25 22.9766 22.2188 23.2422 22.1562C24.4922 21.9219 26 21.7344 27.7656 21.5938C28.7656 21.5156 29.4375 21.3906 29.7812 21.2188C30.0469 21.0938 30.2344 21.0312 30.3438 21.0312C30.6562 21.0312 31.1016 21.2656 31.6797 21.7344C32.3516 22.2344 32.6875 22.625 32.6875 22.9062C32.6875 23.0781 32.5859 23.3203 32.3828 23.6328C32.1484 23.9141 32.0156 24.2734 31.9844 24.7109C31.7031 26.5547 31.2266 28.25 30.5547 29.7969C29.9609 31.1094 29.1094 32.3203 28 33.4297C27.4062 34.0547 26.8438 34.3672 26.3125 34.3672C26.0469 34.3672 25.8125 34.1953 25.6094 33.8516C25.3594 33.5234 24.8906 33.0625 24.2031 32.4688C23.8281 32.1719 23.6406 31.9844 23.6406 31.9062C23.6406 31.8438 23.6719 31.8125 23.7344 31.8125C23.8594 31.8125 24.1328 31.8906 24.5547 32.0469C25.1328 32.2812 25.5625 32.3984 25.8438 32.3984C26.3438 32.3984 26.8594 32.0391 27.3906 31.3203C28.2656 30.2578 28.9375 29.0234 29.4062 27.6172C29.9688 25.9141 30.25 24.4375 30.25 23.1875C30.2656 22.75 29.9844 22.5312 29.4062 22.5312C28.4062 22.5312 27.1484 22.6562 25.6328 22.9062C23.8516 23.2188 22.6094 23.4766 21.9062 23.6797C21.5625 23.7891 21.2812 23.8438 21.0625 23.8438C20.7969 23.8438 20.5156 23.6328 20.2188 23.2109C20.0312 22.9297 19.9375 22.6797 19.9375 22.4609C19.9375 22.3203 20.0625 22.125 20.3125 21.875C20.6875 21.6406 21.1562 21.1484 21.7188 20.3984C22.2812 19.4453 22.5625 18.8438 22.5625 18.5938C22.5625 18.2188 22.4297 17.8516 22.1641 17.4922C20.0078 17.7891 18.5156 18.1094 17.6875 18.4531C17.3906 18.5469 17.1406 18.5938 16.9375 18.5938C16.7344 18.5938 16.4141 18.3281 15.9766 17.7969C15.6172 17.3438 15.4375 17.0469 15.4375 16.9062C15.4375 16.7812 15.5 16.7188 15.625 16.7188Z" fill="#333333"/>
<path d="M15.8828 16.8359L15.5922 17.2428L15.6795 17.3052L15.7848 17.3262L15.8828 16.8359ZM19.2344 16.7188L19.2874 17.2159L19.2959 17.215L19.3043 17.2138L19.2344 16.7188ZM29.5234 15.7578L29.5014 15.2582L29.4941 15.2587L29.5234 15.7578ZM31.8906 15.3125L31.7049 14.8483L31.6885 14.8549L31.6725 14.8626L31.8906 15.3125ZM33.8125 15.7344L34.1278 15.3463L34.1194 15.3395L34.1107 15.333L33.8125 15.7344ZM32.9453 17.0703L33.0181 16.5756L32.9957 16.5723L32.973 16.5711L32.9453 17.0703ZM23.2891 17.3516L23.2313 16.8549L22.1529 16.9803L22.9492 17.7183L23.2891 17.3516ZM23.9688 19.4141L24.2903 19.7969L24.3217 19.7706L24.3484 19.7395L23.9688 19.4141ZM22.6797 21.4531L23.1155 21.6983L23.126 21.6796L23.1349 21.66L22.6797 21.4531ZM23.2422 22.1562L23.15 21.6648L23.1388 21.6669L23.1277 21.6695L23.2422 22.1562ZM27.7656 21.5938L27.7267 21.0953L27.7259 21.0953L27.7656 21.5938ZM29.7812 21.2188L29.5683 20.7662L29.5576 20.7715L29.7812 21.2188ZM31.6797 21.7344L31.3648 22.1228L31.3729 22.1293L31.3812 22.1355L31.6797 21.7344ZM32.3828 23.6328L32.7669 23.9529L32.7859 23.9301L32.802 23.9053L32.3828 23.6328ZM31.9844 24.7109L32.4787 24.7863L32.4817 24.7665L32.4831 24.7466L31.9844 24.7109ZM30.5547 29.7969L31.0103 30.003L31.0133 29.9961L30.5547 29.7969ZM28 33.4297L27.6463 33.076L27.6375 33.0853L28 33.4297ZM25.6094 33.8516L26.0398 33.5972L26.0249 33.5719L26.0071 33.5485L25.6094 33.8516ZM24.2031 32.4688L24.5299 32.0903L24.5219 32.0834L24.5135 32.0767L24.2031 32.4688ZM24.5547 32.0469L24.7425 31.5835L24.7355 31.5806L24.7283 31.578L24.5547 32.0469ZM27.3906 31.3203L27.0047 31.0025L26.9963 31.0126L26.9885 31.0231L27.3906 31.3203ZM29.4062 27.6172L29.8806 27.7753L29.881 27.774L29.4062 27.6172ZM30.25 23.1875L29.7503 23.1697L29.75 23.1786V23.1875H30.25ZM25.6328 22.9062L25.5514 22.4129L25.5464 22.4138L25.6328 22.9062ZM21.9062 23.6797L21.7674 23.1992L21.7546 23.2032L21.9062 23.6797ZM20.2188 23.2109L19.8026 23.4884L19.8098 23.4987L20.2188 23.2109ZM20.3125 21.875L20.0475 21.451L19.9992 21.4812L19.9589 21.5214L20.3125 21.875ZM21.7188 20.3984L22.1187 20.6984L22.1353 20.6763L22.1494 20.6526L21.7188 20.3984ZM22.1641 17.4922L22.5662 17.195L22.3898 16.9564L22.0959 16.9969L22.1641 17.4922ZM17.6875 18.4531L17.8381 18.9299L17.859 18.9233L17.8792 18.9149L17.6875 18.4531ZM15.9766 17.7969L15.5847 18.1076L15.5906 18.1147L15.9766 17.7969ZM15.625 17.2188C15.5892 17.2188 15.563 17.2133 15.549 17.2096C15.5349 17.2059 15.528 17.2026 15.5294 17.2032C15.5306 17.2037 15.5366 17.2066 15.5479 17.2134C15.5591 17.2201 15.5738 17.2297 15.5922 17.2428L16.1734 16.4291C16.0575 16.3463 15.8583 16.2188 15.625 16.2188V17.2188ZM15.7848 17.3262C16.0485 17.379 16.308 17.4062 16.5625 17.4062V16.4062C16.3795 16.4062 16.1859 16.3867 15.9809 16.3456L15.7848 17.3262ZM16.5625 17.4062C17.1991 17.4062 18.1109 17.3414 19.2874 17.2159L19.1813 16.2216C18.0141 16.3461 17.1447 16.4062 16.5625 16.4062V17.4062ZM19.3043 17.2138C22.1619 16.81 25.5774 16.4908 29.5528 16.2569L29.4941 15.2587C25.5007 15.4936 22.0568 15.815 19.1644 16.2237L19.3043 17.2138ZM29.5455 16.2573C30.6277 16.2096 31.4997 16.0577 32.1088 15.7624L31.6725 14.8626C31.2503 15.0673 30.5441 15.2123 29.5014 15.2583L29.5455 16.2573ZM32.0763 15.7767C32.2249 15.7173 32.3401 15.6765 32.4252 15.6513C32.5213 15.6228 32.5441 15.625 32.5234 15.625V14.625C32.3934 14.625 32.256 14.6584 32.1412 14.6925C32.0154 14.7297 31.8689 14.7827 31.7049 14.8483L32.0763 15.7767ZM32.5234 15.625C32.5774 15.625 32.6868 15.6445 32.8664 15.7294C33.0418 15.8123 33.257 15.9446 33.5143 16.1357L34.1107 15.333C33.8211 15.1179 33.5481 14.9455 33.2938 14.8253C33.0437 14.7071 32.782 14.625 32.5234 14.625V15.625ZM33.4972 16.1224C33.7316 16.3129 33.8858 16.4681 33.9773 16.5882C34.0754 16.717 34.0625 16.7542 34.0625 16.7188H35.0625C35.0625 16.4333 34.9246 16.1814 34.7727 15.9821C34.6142 15.7741 34.3934 15.5621 34.1278 15.3463L33.4972 16.1224ZM34.0625 16.7188C34.0625 16.7479 34.058 16.7508 34.0631 16.7381C34.0657 16.7315 34.0703 16.7224 34.0776 16.7122C34.085 16.702 34.0934 16.6932 34.1018 16.6862C34.119 16.6719 34.1274 16.6722 34.1123 16.6764C34.0959 16.681 34.0607 16.6875 34 16.6875V17.6875C34.2446 17.6875 34.5212 17.6384 34.742 17.4544C34.9802 17.2559 35.0625 16.9785 35.0625 16.7188H34.0625ZM34 16.6875C33.8712 16.6875 33.5565 16.6548 33.0181 16.5756L32.8726 17.565C33.3966 17.6421 33.7851 17.6875 34 17.6875V16.6875ZM32.973 16.5711C32.121 16.5237 31.307 16.5 30.5312 16.5V17.5C31.2867 17.5 32.0821 17.5231 32.9176 17.5695L32.973 16.5711ZM30.5312 16.5C27.7062 16.5 25.2718 16.6176 23.2313 16.8549L23.3468 17.8482C25.3376 17.6167 27.7313 17.5 30.5312 17.5V16.5ZM22.9492 17.7183C23.2542 18.001 23.4643 18.239 23.5948 18.4332C23.7299 18.6342 23.75 18.7441 23.75 18.7812H24.75C24.75 18.459 24.61 18.151 24.4247 17.8754C24.235 17.593 23.9645 17.2959 23.6289 16.9848L22.9492 17.7183ZM23.75 18.7812C23.75 18.8235 23.731 18.9231 23.5891 19.0887L24.3484 19.7395C24.5815 19.4675 24.75 19.1452 24.75 18.7812H23.75ZM23.6472 19.0312C23.1631 19.4378 22.6953 20.2104 22.2245 21.2462L23.1349 21.66C23.6015 20.6334 23.9931 20.0466 24.2903 19.7969L23.6472 19.0312ZM22.2439 21.208C22.1683 21.3425 22.1047 21.4678 22.0587 21.5802C22.0183 21.679 21.9688 21.8203 21.9688 21.9688H22.9688C22.9688 22.0035 22.9629 22.0207 22.9653 22.0117C22.967 22.0052 22.9722 21.9883 22.9843 21.9588C23.0086 21.8994 23.0505 21.8138 23.1155 21.6983L22.2439 21.208ZM21.9688 21.9688C21.9688 22.1023 21.9881 22.2898 22.0996 22.457C22.2349 22.66 22.4481 22.75 22.6562 22.75V21.75C22.6878 21.75 22.7397 21.7561 22.7978 21.7852C22.858 21.8153 22.9027 21.859 22.9317 21.9023C22.9806 21.9758 22.9688 22.0227 22.9688 21.9688H21.9688ZM22.6562 22.75C22.8434 22.75 23.0869 22.7064 23.3567 22.643L23.1277 21.6695C22.8662 21.7311 22.7191 21.75 22.6562 21.75V22.75ZM23.3343 22.6477C24.5617 22.4175 26.051 22.2319 27.8053 22.0922L27.7259 21.0953C25.949 21.2369 24.4226 21.4262 23.15 21.6648L23.3343 22.6477ZM27.8046 22.0922C28.3149 22.0524 28.7517 21.9998 29.111 21.933C29.4631 21.8675 29.7708 21.783 30.0049 21.666L29.5576 20.7715C29.4479 20.8264 29.2478 20.8904 28.9281 20.9498C28.6155 21.008 28.2164 21.057 27.7267 21.0953L27.8046 22.0922ZM29.9941 21.6712C30.1168 21.6134 30.2107 21.5753 30.2792 21.5525C30.3561 21.5268 30.3698 21.5312 30.3438 21.5312V20.5312C30.2084 20.5312 30.0736 20.5669 29.963 20.6038C29.844 20.6435 29.7113 20.6991 29.5684 20.7663L29.9941 21.6712ZM30.3438 21.5312C30.3839 21.5312 30.4892 21.5495 30.6792 21.6495C30.8626 21.746 31.0903 21.9002 31.3648 22.1228L31.9946 21.346C31.6909 21.0998 31.4069 20.9024 31.145 20.7646C30.8897 20.6302 30.6161 20.5312 30.3438 20.5312V21.5312ZM31.3812 22.1355C31.7035 22.3753 31.9227 22.5728 32.0565 22.7284C32.204 22.8999 32.1875 22.951 32.1875 22.9062H33.1875C33.1875 22.5803 33.0031 22.2954 32.8146 22.0763C32.6125 21.8413 32.3278 21.5934 31.9782 21.3333L31.3812 22.1355ZM32.1875 22.9062C32.1875 22.9002 32.1875 22.9345 32.1502 23.0234C32.1147 23.1082 32.055 23.2196 31.9636 23.3603L32.802 23.9053C33.0091 23.5867 33.1875 23.2365 33.1875 22.9062H32.1875ZM31.9987 23.3127C31.6848 23.6894 31.5228 24.1545 31.4856 24.6753L32.4831 24.7466C32.5084 24.3924 32.612 24.1388 32.7669 23.9529L31.9987 23.3127ZM31.4901 24.6355C31.2147 26.4411 30.7491 28.0943 30.0961 29.5977L31.0133 29.9961C31.7041 28.4057 32.1916 26.6683 32.4787 24.7863L31.4901 24.6355ZM30.0991 29.5908C29.5323 30.8437 28.717 32.0056 27.6464 33.0761L28.3536 33.7832C29.5017 32.6351 30.3895 31.3751 31.0102 30.003L30.0991 29.5908ZM27.6375 33.0853C27.0815 33.6706 26.6418 33.8672 26.3125 33.8672V34.8672C27.0457 34.8672 27.731 34.4388 28.3625 33.7741L27.6375 33.0853ZM26.3125 33.8672C26.3024 33.8672 26.202 33.8716 26.0398 33.5972L25.1789 34.1059C25.423 34.5191 25.7913 34.8672 26.3125 34.8672V33.8672ZM26.0071 33.5485C25.7232 33.176 25.2201 32.6864 24.5299 32.0903L23.8763 32.8472C24.5612 33.4386 24.9955 33.8709 25.2117 34.1546L26.0071 33.5485ZM24.5135 32.0767C24.3312 31.9324 24.2082 31.8253 24.1348 31.7519C24.1173 31.7344 24.1044 31.7206 24.0954 31.7104C24.0862 31.6998 24.0832 31.6956 24.0843 31.697C24.0844 31.6973 24.0947 31.7115 24.1063 31.7376C24.1165 31.7605 24.1406 31.8209 24.1406 31.9062H23.1406C23.1406 32.0929 23.2368 32.2304 23.2673 32.2737C23.3141 32.34 23.3716 32.4029 23.4277 32.459C23.5418 32.5731 23.7001 32.7082 23.8928 32.8608L24.5135 32.0767ZM24.1406 31.9062C24.1406 31.9521 24.1288 32.0783 24.0176 32.1895C23.9064 32.3007 23.7802 32.3125 23.7344 32.3125V31.3125C23.6261 31.3125 23.453 31.3399 23.3105 31.4824C23.168 31.6248 23.1406 31.7979 23.1406 31.9062H24.1406ZM23.7344 32.3125C23.7209 32.3125 23.7617 32.3135 23.8958 32.3519C24.0154 32.386 24.176 32.4398 24.381 32.5157L24.7283 31.578C24.5115 31.4977 24.3244 31.4343 24.1706 31.3903C24.0313 31.3505 23.8729 31.3125 23.7344 31.3125V32.3125ZM24.3668 32.5102C24.9495 32.7465 25.4576 32.8984 25.8438 32.8984V31.8984C25.6674 31.8984 25.3161 31.816 24.7425 31.5835L24.3668 32.5102ZM25.8438 32.8984C26.5929 32.8984 27.2386 32.3672 27.7927 31.6175L26.9885 31.0231C26.4802 31.7109 26.0946 31.8984 25.8438 31.8984V32.8984ZM27.7766 31.6382C28.6935 30.5248 29.3939 29.2353 29.8806 27.7753L28.9319 27.4591C28.4811 28.8116 27.8377 29.9909 27.0047 31.0025L27.7766 31.6382ZM29.881 27.774C30.4536 26.0403 30.75 24.5084 30.75 23.1875H29.75C29.75 24.3666 29.4839 25.7878 28.9315 27.4604L29.881 27.774ZM30.7497 23.2053C30.7618 22.8673 30.6545 22.5314 30.3578 22.3006C30.0895 22.092 29.7425 22.0312 29.4062 22.0312V23.0312C29.6481 23.0312 29.7308 23.0798 29.7438 23.09C29.7458 23.0916 29.7452 23.0914 29.7437 23.0894C29.7422 23.0874 29.7419 23.0864 29.7426 23.088C29.7439 23.0913 29.7523 23.1144 29.7503 23.1697L30.7497 23.2053ZM29.4062 22.0312C28.3686 22.0312 27.0813 22.1606 25.5514 22.4129L25.7142 23.3996C27.2155 23.1519 28.4439 23.0312 29.4062 23.0312V22.0312ZM25.5464 22.4138C23.7657 22.7262 22.4994 22.9879 21.7675 23.1993L22.045 24.16C22.7194 23.9652 23.9374 23.7113 25.7192 23.3987L25.5464 22.4138ZM21.7546 23.2032C21.4325 23.3057 21.2073 23.3438 21.0625 23.3438V24.3438C21.3552 24.3438 21.6925 24.2724 22.0579 24.1562L21.7546 23.2032ZM21.0625 23.3438C21.0625 23.3438 21.0622 23.3438 21.0615 23.3437C21.0609 23.3436 21.0598 23.3435 21.0582 23.3432C21.0549 23.3425 21.0491 23.3411 21.0403 23.3377C21.0224 23.3308 20.993 23.316 20.9523 23.2855C20.8683 23.2225 20.7587 23.1093 20.6277 22.9232L19.8098 23.4987C20.1182 23.9369 20.5306 24.3438 21.0625 24.3438V23.3438ZM20.6348 22.9336C20.4743 22.6929 20.4375 22.5407 20.4375 22.4609H19.4375C19.4375 22.8187 19.5882 23.1664 19.8027 23.4883L20.6348 22.9336ZM20.4375 22.4609C20.4375 22.4804 20.4353 22.4953 20.4334 22.5049C20.4315 22.5144 20.4296 22.5194 20.4295 22.5196C20.4295 22.5198 20.4308 22.5163 20.4345 22.509C20.4383 22.5017 20.444 22.4916 20.4524 22.4785C20.4882 22.4226 20.5547 22.3399 20.6661 22.2286L19.9589 21.5214C19.8203 21.6601 19.6993 21.8 19.6101 21.9395C19.5262 22.0706 19.4375 22.2515 19.4375 22.4609H20.4375ZM20.5775 22.299C21.0363 22.0123 21.5513 21.455 22.1187 20.6984L21.3188 20.0984C20.7612 20.8419 20.3387 21.269 20.0475 21.451L20.5775 22.299ZM22.1494 20.6526C22.4341 20.17 22.6541 19.7658 22.8045 19.4442C22.8796 19.2835 22.941 19.1357 22.9845 19.004C23.0254 18.8804 23.0625 18.736 23.0625 18.5938H22.0625C22.0625 18.5765 22.0645 18.6011 22.035 18.6904C22.0082 18.7715 21.9641 18.8805 21.8986 19.0207C21.7677 19.3006 21.5659 19.6738 21.2881 20.1443L22.1494 20.6526ZM23.0625 18.5938C23.0625 18.0924 22.8828 17.6234 22.5662 17.195L21.762 17.7894C21.9765 18.0797 22.0625 18.3451 22.0625 18.5938H23.0625ZM22.0959 16.9969C19.9404 17.2936 18.3899 17.6202 17.4958 17.9913L17.8792 18.9149C18.6414 18.5985 20.0753 18.2845 22.2323 17.9875L22.0959 16.9969ZM17.5369 17.9763C17.2657 18.062 17.07 18.0938 16.9375 18.0938V19.0938C17.2113 19.0938 17.5155 19.0318 17.8381 18.9299L17.5369 17.9763ZM16.9375 18.0938C16.9924 18.0938 17.0138 18.1104 16.9894 18.0981C16.9677 18.087 16.9264 18.0613 16.8641 18.0097C16.7389 17.9058 16.5724 17.7338 16.3625 17.479L15.5906 18.1147C15.8182 18.3912 16.0307 18.6176 16.2258 18.7794C16.397 18.9214 16.6471 19.0938 16.9375 19.0938V18.0938ZM16.3683 17.4862C16.1943 17.2668 16.0742 17.098 16 16.9755C15.9629 16.9141 15.943 16.8737 15.9337 16.8511C15.9214 16.8211 15.9375 16.8465 15.9375 16.9062H14.9375C14.9375 17.0363 14.976 17.1515 15.0087 17.231C15.0443 17.3177 15.0918 17.4062 15.1445 17.4933C15.25 17.6676 15.3994 17.8738 15.5848 18.1076L16.3683 17.4862ZM15.9375 16.9062C15.9375 16.9208 15.9335 17.0236 15.8379 17.1192C15.7423 17.2148 15.6396 17.2188 15.625 17.2188V16.2188C15.4854 16.2188 15.2889 16.254 15.1308 16.4121C14.9727 16.5702 14.9375 16.7667 14.9375 16.9062H15.9375Z" fill="#333333"/>
</svg>

<svg xmlns="http://www.w3.org/2000/svg" width="50" height="50" fill="none"><path fill="#333" d="M15.625 16.719c.063 0 .148.039.258.117.234.047.46.07.68.07.609 0 1.5-.062 2.671-.187 2.875-.407 6.305-.727 10.29-.961 1.062-.047 1.851-.195 2.367-.445.312-.126.523-.188.632-.188.313 0 .743.203 1.29.61.5.406.75.734.75.984 0 .312-.188.468-.563.468-.172 0-.523-.039-1.055-.117a43.566 43.566 0 0 0-2.414-.07c-2.812 0-5.226.117-7.242.352.64.593.961 1.07.961 1.43 0 .202-.094.413-.281.632-.39.328-.82 1.008-1.29 2.04-.14.25-.21.421-.21.515 0 .187.062.281.187.281s.32-.031.586-.094c1.25-.234 2.758-.422 4.524-.562 1-.078 1.672-.203 2.015-.375.266-.125.453-.188.563-.188.312 0 .758.235 1.336.703.672.5 1.008.891 1.008 1.172 0 .172-.102.414-.305.727-.235.281-.367.64-.399 1.078-.28 1.844-.757 3.539-1.43 5.086-.593 1.312-1.445 2.523-2.554 3.633-.594.625-1.156.937-1.688.937-.265 0-.5-.172-.703-.515-.25-.329-.718-.79-1.406-1.383-.375-.297-.562-.485-.562-.563 0-.062.03-.093.093-.093.125 0 .399.078.82.234.579.234 1.009.351 1.29.351.5 0 1.015-.359 1.547-1.078.875-1.062 1.547-2.297 2.015-3.703.563-1.703.844-3.18.844-4.43.016-.437-.266-.656-.844-.656-1 0-2.258.125-3.773.375-1.781.313-3.024.57-3.727.774-.343.11-.625.164-.843.164-.266 0-.547-.211-.844-.633-.188-.281-.282-.531-.282-.75 0-.14.125-.336.375-.586.375-.234.844-.727 1.407-1.477.562-.953.843-1.554.843-1.804 0-.375-.132-.742-.398-1.102-2.156.297-3.648.617-4.477.961-.296.094-.546.14-.75.14-.203 0-.523-.265-.96-.796-.36-.453-.54-.75-.54-.89 0-.126.063-.188.188-.188Z"/><path fill="#333" d="m15.883 16.836-.29.407.087.062.105.021.098-.49Zm3.351-.117.053.497.009-.001.008-.001-.07-.495Zm10.29-.961-.023-.5h-.007l.03.5Zm2.367-.445-.186-.465-.016.007-.017.008.219.45Zm1.922.421.315-.388-.009-.007-.008-.006-.298.401Zm-.868 1.336.073-.494-.022-.004h-.023l-.028.498Zm-9.656.282-.058-.497-1.078.125.796.738.34-.366Zm.68 2.062.321.383.032-.026.026-.032-.38-.325Zm-1.29 2.04.437.244.01-.018.009-.02-.455-.207Zm.563.702-.092-.491-.011.002-.011.002.114.487Zm4.524-.562-.04-.499.04.499Zm2.015-.375-.213-.453-.01.006.223.447Zm1.899.515-.315.389.008.006.008.006.299-.4Zm.703 1.899.384.32.019-.023.016-.025-.42-.272Zm-.399 1.078.495.075.003-.02.001-.02-.499-.035Zm-1.43 5.086.456.206.003-.007-.458-.2ZM28 33.43l-.354-.354-.009.01.363.344Zm-2.39.422.43-.255-.015-.025-.018-.024-.398.304Zm-1.407-1.383.327-.379-.008-.007-.008-.006-.31.392Zm.352-.422.188-.463-.008-.003-.007-.003-.173.469Zm2.836-.727-.386-.317-.009.01-.008.01.403.297Zm2.015-3.703.475.158v-.001l-.475-.157Zm.844-4.43-.5-.017v.018h.5Zm-4.617-.28-.082-.494h-.005l.087.493Zm-3.727.773-.139-.48-.012.003.151.477Zm-1.687-.47-.416.278.007.01.409-.287Zm.093-1.335-.265-.424-.048.03-.04.04.354.354Zm1.407-1.477.4.3.016-.022.014-.023-.43-.255Zm.445-2.906.402-.297-.176-.239-.294.04.068.496Zm-4.477.961.151.477.021-.007.02-.008-.192-.462Zm-1.71-.656-.392.31.006.008.386-.318Zm-.352-.578a.298.298 0 0 1-.076-.01c-.014-.003-.021-.006-.02-.006l.019.01a.685.685 0 0 1 .044.03l.581-.814c-.115-.083-.315-.21-.548-.21v1Zm.16.107c.264.053.523.08.777.08v-1c-.183 0-.376-.02-.581-.06l-.196.98Zm.777.08c.637 0 1.549-.065 2.725-.19l-.106-.994c-1.167.124-2.036.184-2.619.184v1Zm2.742-.192c2.858-.404 6.273-.723 10.249-.957l-.059-.998c-3.993.235-7.437.556-10.33.965l.14.99Zm10.242-.957c1.082-.047 1.954-.2 2.563-.495l-.437-.9c-.422.205-1.128.35-2.17.396l.044 1Zm2.53-.48c.149-.06.264-.1.35-.126.095-.028.118-.026.097-.026v-1c-.13 0-.267.033-.382.068-.126.037-.272.09-.436.155l.371.929Zm.447-.152c.054 0 .164.02.343.104.176.083.391.216.648.407l.597-.803a4.968 4.968 0 0 0-.817-.508c-.25-.118-.512-.2-.77-.2v1Zm.974.497c.235.19.389.346.48.466.098.129.086.166.086.13h1c0-.285-.138-.537-.29-.736a3.921 3.921 0 0 0-.645-.636l-.63.776Zm.566.597c0 .029-.005.032 0 .02a.145.145 0 0 1 .039-.052c.017-.015.025-.015.01-.01a.437.437 0 0 1-.112.01v1c.245 0 .521-.049.742-.233.238-.198.32-.476.32-.735h-1ZM34 16.687c-.129 0-.444-.032-.982-.111l-.145.989c.524.077.912.122 1.127.122v-1Zm-1.027-.116a44.028 44.028 0 0 0-2.442-.071v1c.756 0 1.551.023 2.387.07l.055-.999Zm-2.442-.071c-2.825 0-5.26.118-7.3.355l.116.993c1.99-.231 4.384-.348 7.184-.348v-1Zm-7.582 1.218c.305.283.515.521.646.715.135.201.155.311.155.348h1c0-.322-.14-.63-.325-.906a5.29 5.29 0 0 0-.796-.89l-.68.733Zm.801 1.063c0 .043-.019.142-.16.308l.758.65c.233-.271.402-.594.402-.958h-1Zm-.103.25c-.484.407-.952 1.18-1.422 2.215l.91.414c.466-1.027.858-1.613 1.155-1.863l-.643-.766Zm-1.403 2.177a3.45 3.45 0 0 0-.185.372c-.04.099-.09.24-.09.389h1c0 .034-.006.052-.004.043a.465.465 0 0 1 .02-.053c.024-.06.066-.145.13-.26l-.871-.491Zm-.275.76c0 .134.02.322.13.489a.657.657 0 0 0 .557.293v-1a.35.35 0 0 1 .276.152c.049.074.037.12.037.067h-1Zm.687.782c.187 0 .43-.044.7-.107l-.228-.974c-.262.062-.409.081-.472.081v1Zm.678-.102c1.228-.23 2.717-.416 4.471-.556l-.08-.997c-1.776.142-3.302.331-4.575.57l.184.983Zm4.47-.556c.51-.04.948-.092 1.307-.159.352-.066.66-.15.894-.267l-.447-.895c-.11.055-.31.12-.63.179-.313.058-.712.107-1.201.145l.078.997Zm2.19-.42c.123-.059.217-.097.285-.12.077-.025.09-.02.065-.02v-1c-.136 0-.27.035-.381.072-.119.04-.252.095-.395.162l.426.905Zm.35-.14c.04 0 .145.017.335.117.184.097.411.251.686.474l.63-.777a5.351 5.351 0 0 0-.85-.581c-.255-.135-.529-.234-.801-.234v1Zm1.037.604c.322.24.542.437.675.592.148.172.132.223.132.178h1c0-.326-.185-.61-.373-.83a5.245 5.245 0 0 0-.837-.743l-.597.803Zm.806.77c0-.006 0 .029-.037.117a2.22 2.22 0 0 1-.186.337l.838.545c.207-.318.386-.669.386-.999h-1Zm-.188.407c-.314.376-.476.841-.513 1.362l.997.072c.025-.355.129-.608.284-.794l-.768-.64Zm-.509 1.323c-.275 1.805-.74 3.458-1.394 4.962l.917.398c.691-1.59 1.179-3.328 1.466-5.21l-.989-.15ZM30.1 29.59c-.568 1.253-1.383 2.415-2.454 3.485l.708.707c1.148-1.148 2.036-2.408 2.656-3.78l-.91-.412Zm-2.463 3.494c-.556.586-.995.782-1.325.782v1c.734 0 1.419-.428 2.05-1.093l-.724-.689Zm-1.325.782c-.01 0-.11.005-.272-.27l-.861.509c.244.413.612.761 1.134.761v-1Zm-.305-.319c-.284-.372-.787-.862-1.477-1.458l-.654.757c.685.592 1.12 1.024 1.336 1.308l.795-.607Zm-1.494-1.471a4.68 4.68 0 0 1-.418-.367c-.009-.01-.012-.014-.01-.013a.415.415 0 0 1 .056.21h-1c0 .186.096.323.126.367.047.066.105.129.16.185.115.114.273.25.466.402l.62-.784Zm-.372-.17a.408.408 0 0 1-.123.283.408.408 0 0 1-.284.123v-1a.594.594 0 0 0-.424.17.593.593 0 0 0-.17.423h1Zm-.407.405c-.013 0 .028.002.162.04.12.034.28.088.485.164l.347-.938a8.003 8.003 0 0 0-.557-.188 1.683 1.683 0 0 0-.437-.078v1Zm.633.198c.582.236 1.09.388 1.477.388v-1c-.177 0-.528-.082-1.102-.314l-.375.926Zm1.477.388c.749 0 1.395-.53 1.949-1.28l-.805-.595c-.508.688-.893.875-1.144.875v1Zm1.933-1.26c.916-1.113 1.617-2.403 2.104-3.863l-.95-.316c-.45 1.353-1.093 2.532-1.926 3.544l.772.635Zm2.104-3.864c.573-1.734.869-3.266.869-4.587h-1c0 1.18-.266 2.6-.819 4.273l.95.314Zm.869-4.569c.012-.338-.096-.674-.392-.904-.268-.209-.616-.27-.952-.27v1c.242 0 .325.049.338.059.002.002.001.001 0 0l-.001-.002c0 .003.01.026.007.082l1 .035Zm-1.344-1.174c-1.037 0-2.325.13-3.855.382l.163.987c1.502-.248 2.73-.369 3.692-.369v-1Zm-3.86.383c-1.78.312-3.047.574-3.779.785l.278.961c.674-.195 1.892-.449 3.674-.761l-.173-.985Zm-3.791.79c-.322.102-.548.14-.692.14v1c.292 0 .63-.072.995-.188l-.303-.953Zm-.692.14h-.005a.383.383 0 0 1-.106-.058 1.623 1.623 0 0 1-.324-.363l-.818.576c.308.438.72.845 1.253.845v-1Zm-.428-.41c-.16-.241-.198-.393-.198-.473h-1c0 .358.151.705.366 1.027l.832-.554Zm-.198-.473a.226.226 0 0 1-.008.059l.006-.011a1.612 1.612 0 0 1 .232-.28l-.708-.708c-.139.14-.26.279-.349.418a.98.98 0 0 0-.172.522h1Zm.14-.162c.46-.287.974-.844 1.542-1.6l-.8-.6c-.558.743-.98 1.17-1.271 1.352l.53.848Zm1.572-1.646c.285-.483.505-.887.655-1.209.076-.16.137-.308.18-.44.041-.124.078-.268.078-.41h-1c0-.018.002.007-.027.096-.027.081-.07.19-.136.33-.131.28-.333.654-.61 1.124l.86.509Zm.913-2.06c0-.5-.18-.97-.496-1.398l-.804.594c.215.29.3.556.3.805h1Zm-.966-1.596c-2.156.297-3.706.623-4.6.994l.383.924c.762-.316 2.196-.63 4.353-.927l-.136-.991Zm-4.56.98a2.101 2.101 0 0 1-.599.117v1c.274 0 .578-.062.901-.164l-.301-.954Zm-.599.117c.055 0 .077.016.052.004a.75.75 0 0 1-.125-.088 4.105 4.105 0 0 1-.502-.531l-.771.636c.227.276.44.503.635.664.171.142.421.315.712.315v-1Zm-.569-.608a5.306 5.306 0 0 1-.368-.51.989.989 0 0 1-.066-.125c-.013-.03.004-.005.004.055h-1c0 .13.038.245.07.325.036.087.084.175.137.262.105.175.254.38.44.615l.783-.622Zm-.43-.58a.319.319 0 0 1-.1.213.318.318 0 0 1-.213.1v-1a.688.688 0 0 0-.494.193.687.687 0 0 0-.194.494h1Z"/></svg>
